!!!COM: Felis, Stefano
!!!CDT: 
!!!PTL: Il sesto libro de madrigali a cinque voci
!!!PPP: Venice
!!!PPR: Heirs of G. Scotto
!!!PDT: 1591
!!!PUB-format:
!!!RISM: 1591-18
!!!rime: 1022
!!!OTL: Voi sete bella, ma fugage e presta
!!!AGN: Madrigal
!!!SCT: Trm1022a
!!!SCA: Trm1022a
!!!original-voices: 5
!!!extant-voices: 5
!!!complete: Y
!!!final: (G)(G)(G)G
**kern	**text	**kern	**text	**kern	**text	**kern	**text	**kern	**text
*part5	*part5	*part4	*part4	*part3	*part3	*part2	*part2	*part1	*part1
*staff5	*staff5	*staff4	*staff4	*staff3	*staff3	*staff2	*staff2	*staff1	*staff1
*I"Basso	*	*I"Tenore	*	*I"Alto	*	*I"Quinto	*	*I"Canto	*
*I'B	*	*I'T	*	*I'A	*	*I'V	*	*I'C	*
*oclefF4	*	*oclefC4	*	*oclefC3	*	*oclefC1	*	*oclefC1	*
*clefF4	*	*clefGv2	*	*clefGv2	*	*clefG2	*	*clefG2	*
*k[b-]	*	*k[b-]	*	*k[b-]	*	*k[b-]	*	*k[b-]	*
*omet(C)	*	*omet(C)	*	*omet(C)	*	*omet(C)	*	*omet(C)	*
*M4/2	*	*M4/2	*	*M4/2	*	*M4/2	*	*M4/2	*
=1	=1	=1	=1	=1	=1	=1	=1	=1	=1
!!LO:TX:a:t=Prima parte.
0r	.	0r	.	1r	.	2r	.	2dd	Voi
.	.	.	.	.	.	4r	.	4cc	se-
.	.	.	.	.	.	4g	Voi	4b-	-te
.	.	.	.	4r	.	4a	se-	4a	bel-
.	.	.	.	4G	Voi	4b-	-te	4g	-la,
.	.	.	.	4A	se-	4cc	bel-	8f	ma
.	.	.	.	.	.	.	.	8e	fu-
.	.	.	.	4B-	-te	4dd	-la,	8d	-ga-
.	.	.	.	.	.	.	.	8f	-ce e
=2	=2	=2	=2	=2	=2	=2	=2	=2	=2
0r	.	2r	.	4c	bel-	8g	ma	4e	pre-
.	.	.	.	.	.	8a	fu-	.	.
.	.	.	.	4d	-la,	8b-	-ga-	4d	-sta,
.	.	.	.	.	.	8cc	-ce e	.	.
.	.	4r	.	8G	ma	2dd	pre-	4r	.
.	.	.	.	8A	fu-	.	.	.	.
.	.	2d	Voi	8B-	-ga	.	.	4g	Voi
.	.	.	.	8c	ce e	.	.	.	.
.	.	.	.	4d	pre-	2a	-sta,	4f	se-
.	.	2c	se-	4A	-sta,	.	.	4e	-te
.	.	.	.	8d	ma	2r	.	4d	bel-
.	.	.	.	8e	fu-	.	.	.	.
.	.	4B-	-te	8f	-ga-	.	.	8d	-la,
.	.	.	.	8d	-ce e	.	.	8dd	<Voi
=3	=3	=3	=3	=3	=3	=3	=3	=3	=3
2r	.	4A	bel-	4e	pre-	4r	.	4cc	se-
.	.	4G	-la,	4g	-sta,	4dd	<Voi	4b-	-te
4r	.	2r	.	2r	.	4cc	se-	4a	bel-
4G	Voi	.	.	.	.	4b-	-te	4g	-la,>
4F	se-	8c	ma	4r	.	4a	bel-	1r	.
.	.	8d	fu-	.	.	.	.	.	.
4E-X	-te	8e-Xi	-ga-	4g	Voi	4g	-la,	.	.
.	.	8c	-ce e	.	.	.	.	.	.
4D	bel-	4d	pre-	4f	se-	4r	.	.	.
4C	-la	4G	-sta	4e-X	-te	8g	ma	.	.
.	.	.	.	.	.	8a	fu-	.	.
=4	=4	=4	=4	=4	=4	=4	=4	=4	=4
8G	ma	1r	.	4d	bel-	8b-	-ga-	4r	.
8A	fu-	.	.	.	.	8cc	-ce e	.	.
8B-	-ga-	.	.	4G	-la,	2dd	pre-	8dd	ma
8c	-ce e	.	.	.	.	.	.	8cc	fu-
2d	pre-	.	.	8G	ma	.	.	8b-	-ga-
.	.	.	.	8A	fu-	.	.	8a	-ce e
.	.	.	.	8B-	-ga-	8ccL	.	2g	pre-
.	.	.	.	8c	-ce e	8b-J	.	.	.
2D	-sta,	2r	.	2d	pre-	2a	.	.	.
.	.	.	.	.	.	.	.	4f#Xi	.
2r	.	4r	.	4G	-sta	2g	-sta>	2g	-sta
.	.	[4e-X	Co-	[4g	Co-	.	.	.	.
=5	=5	=5	=5	=5	=5	=5	=5	=5	=5
2.G	Co-	4e-]	.	4g]	.	4r	.	0r	.
.	.	8d	-me	8f	-me	2b-	Co-	.	.
.	.	8c	cer-	8e-Xi	cer-	.	.	.	.
.	.	2.B-	-vet-	2.d	-vet-	.	.	.	.
8F	-me	.	.	.	.	8a	-me	.	.
8E-Xi	cer-	.	.	.	.	8g	cer-	.	.
4D	-vet-	.	.	.	.	8f	-vet-	.	.
.	.	.	.	.	.	8d	-ta	.	.
4C	-ta	4c	-ta	4e-	-ta	2g	so-	.	.
2D	so-	2A	so-	2d	so-	.	.	.	.
.	.	.	.	.	.	4f#Xi	.	.	.
=6	=6	=6	=6	=6	=6	=6	=6	=6	=6
2GG	-le	2G	-le,	4d	-le,	4g	-le,	2r	.
.	.	.	.	2b-	Co-	2dd	<Co-	.	.
2r	.	2.d	Co-	.	.	.	.	4r	.
.	.	.	.	8a	-me	8cc	-me	2ff	Co-
.	.	.	.	8g	cer-	8b-	cer-	.	.
1r	.	.	.	2.f	-vet-	2.a	-vet-	.	.
.	.	8c	-me	.	.	.	.	8ee	-me
.	.	8B-	cer-	.	.	.	.	8dd	cer-
.	.	4A	-vet-	.	.	.	.	8cc	-vet-
.	.	.	.	.	.	.	.	8a	-ta
.	.	4G	-ta	4g	-ta	4b-	-ta	[4dd	so-
=7	=7	=7	=7	=7	=7	=7	=7	=7	=7
1r	.	2A	so-	2e	so-	2a	so-	4dd]	.
.	.	.	.	.	.	.	.	4cc#X	.
.	.	4D	-le	2f#X	-le	2a	-le>	2dd	-le
.	.	4D	Che	.	.	.	.	.	.
4r	.	4.d	fug-	2r	.	1r	.	1r	.
4GG	Che	.	.	.	.	.	.	.	.
.	.	8c	-ge	.	.	.	.	.	.
4.G	fug-	4.B-	per	4r	.	.	.	.	.
.	.	.	.	4d	Che	.	.	.	.
8F	-ge	8A	le	.	.	.	.	.	.
=8	=8	=8	=8	=8	=8	=8	=8	=8	=8
4E-X	per	2.G	sel-	4.g	fug-	0r	.	0r	.
4D	le	.	.	.	.	.	.	.	.
.	.	.	.	8f	-ge	.	.	.	.
4.C	sel-	.	.	4e-X	per	.	.	.	.
.	.	4G	-ve om-	4d	le	.	.	.	.
8BB-	-ve om-	.	.	.	.	.	.	.	.
2.AA	-bro-	2A	-bro-	4.c	sel-	.	.	.	.
.	.	.	.	8c	-ve om-	.	.	.	.
.	.	4E	-se e	4c	-bro-	.	.	.	.
4GG	-se e	[4G	so-	4B-	-se e	.	.	.	.
=9	=9	=9	=9	=9	=9	=9	=9	=9	=9
2D	so-	4G]	.	2A	so-	1r	.	2r	.
.	.	4F#Xi	.	.	.	.	.	.	.
2GG	-le	1G	-le,	2G	-le,	.	.	4r	.
.	.	.	.	.	.	.	.	4g	Che
1r	.	.	.	4r	.	4r	.	4.dd	fug-
.	.	.	.	4g	<Che	4g	Che	.	.
.	.	.	.	.	.	.	.	8cc	-ge
.	.	2D	om-	4.f	fug-	4.dd	fug-	4b-	per
.	.	.	.	.	.	.	.	4a	le
.	.	.	.	8e	-ge	8cc	-ge	.	.
=10	=10	=10	=10	=10	=10	=10	=10	=10	=10
0r	.	2G	-bro-	4.d	per	4.b-	per	8gL	sel-
.	.	.	.	.	.	.	.	8a	.
.	.	.	.	.	.	.	.	8b-	.
.	.	.	.	8c	le	8a	le	8ccJ	.
.	.	2G	-se e	4Bn	sel-	4g	sel-	4dd	.
.	.	.	.	4d	-ve om-	4f	-ve om-	4b-	-ve om-
.	.	1A	so-	4c#X	-bro-	4e	-bro-	4.a	-bro-
.	.	.	.	2d	-se e	4d	-se e	.	.
.	.	.	.	.	.	.	.	8a	-se e
.	.	.	.	.	.	2e	so-	2a	so-
.	.	.	.	4c#X	so-	.	.	.	.
=11	=11	=11	=11	=11	=11	=11	=11	=11	=11
2r	.	2D	-le	4d	-le>	1d	-le	2f#X	-le
.	.	.	.	4d	E	.	.	.	.
2G	E	4r	.	8B-XL	cer	.	.	2r	.
.	.	.	.	8c	.	.	.	.	.
.	.	4B-	E	8d	.	.	.	.	.
.	.	.	.	8B-J	.	.	.	.	.
4.E-X	cer-	4.G	cer-	4c	.	1r	.	1r	.
.	.	.	.	4B-	ca	.	.	.	.
8F	-ca	8A	-ca	.	.	.	.	.	.
8GL	fiu-	8B-L	fiu-	8e-XL	fiu-	.	.	.	.
8F	.	8A	.	8d	.	.	.	.	.
8E-	.	8G	.	8c	.	.	.	.	.
8DJ	.	8FJ	.	8B-J	.	.	.	.	.
=12	=12	=12	=12	=12	=12	=12	=12	=12	=12
4C	.	4E-Xi	.	4A	.	2r	.	1r	.
4E-X	-me o	2G	-me o	4G	-me o	.	.	.	.
2D	ri-	.	.	2A	ri-	4r	.	.	.
.	.	4F#Xi	ri-	.	.	4dd	E	.	.
2GG	-o,	2G	-o,	4G	-o,	8b-L	cer-	4r	.
.	.	.	.	.	.	8cc	.	.	.
.	.	.	.	4g	E	8dd	.	4b-	E
.	.	.	.	.	.	8b-J	.	.	.
2r	.	2r	.	4.e-X	cer-	4cc	.	4.g	cer-
.	.	.	.	.	.	4b-	-ca	.	.
.	.	.	.	8f	-ca	.	.	8a	-ca
=13	=13	=13	=13	=13	=13	=13	=13	=13	=13
1r	.	1r	.	8gL	fiu-	8ee-XL	fiu-	8b-L	fiu-
.	.	.	.	8f	.	8dd	.	8a	.
.	.	.	.	8e-Xi	.	8cc	.	8g	.
.	.	.	.	8dJ	.	8b-J	.	8fJ	.
.	.	.	.	4c	.	4a	.	4e-Xi	.
.	.	.	.	4e-	-me o	4g	-me o	2g	-me o
2r	.	4r	.	2d	ri-	2a	ri-	.	.
.	.	4d	E	.	.	.	.	4f#Xi	ri-
4r	.	4.B-	cer-	2G	-o,	[2g	-o,	4g	-o,
4B-	<E	.	.	.	.	.	.	4dd	<E
.	.	8c	-ca	.	.	.	.	.	.
=14	=14	=14	=14	=14	=14	=14	=14	=14	=14
4.G	cer-	8dL	fiu-	4r	.	2g]	.	4.b-	cer-
.	.	8c	.	.	.	.	.	.	.
.	.	8B-	.	4g	E	.	.	.	.
8A	-ca	8AJ	.	.	.	.	.	8cc	-ca
8B-L	fiu-	4G	.	4g	cer-	2r	.	8ddL	fiu-
8A	.	.	.	.	.	.	.	8cc	.
8G	.	4d	-me o	4g	-ca	.	.	8b-	.
8FJ	.	.	.	.	.	.	.	8aJ	.
4E-X	.	8e-XL	ri-	4.g	fiu-	1r	.	4g	.
.	.	8d	.	.	.	.	.	.	.
4G	-me o	8d	.	.	.	.	.	2b-	-me o
.	.	16c	.	8d	-me o	.	.	.	.
.	.	16B-J	.	.	.	.	.	.	.
2F	ri-	2c	.	2f	ri-	.	.	.	.
.	.	.	.	.	.	.	.	4a	ri-
=15	=15	=15	=15	=15	=15	=15	=15	=15	=15
1BB-	-o,>	2B-	-o,	2f	-o,	2r	.	4b-	-o,>
.	.	.	.	.	.	.	.	4dd	E
.	.	2r	.	4r	.	4r	.	4.b-	cer-
.	.	.	.	4b-	E	4dd	E	.	.
.	.	.	.	.	.	.	.	8cc	-ca
1r	.	1r	.	4.g	cer-	4.b-	cer-	8ddL	fiu-
.	.	.	.	.	.	.	.	8cc	.
.	.	.	.	.	.	.	.	8b-	.
.	.	.	.	8a	-ca	8cc	-ca	8aJ	.
.	.	.	.	8b-L	fiu-	8ddL	fiu-	4g	.
.	.	.	.	8a	.	8cc	.	.	.
.	.	.	.	8g	.	8b-	.	4dd	-me o
.	.	.	.	8fJ	.	8aJ	.	.	.
=16	=16	=16	=16	=16	=16	=16	=16	=16	=16
1r	.	1r	.	4e-X	.	4g	.	8ee-XiL	ri-
.	.	.	.	.	.	.	.	8dd	.
.	.	.	.	4g	-me o	2b-	-me o	8dd	.
.	.	.	.	.	.	.	.	16cc	.
.	.	.	.	.	.	.	.	16b-J	.
.	.	.	.	2f	ri-	.	.	2cc	.
.	.	.	.	.	.	4a	ri-	.	.
2r	.	4r	.	2B-	-o,	2b-	-o,	2b-	-o,
.	.	4d	Tal	.	.	.	.	.	.
4r	.	4G	che	2r	.	2dd	Tal	2r	.
4D	Tal	4A	vi	.	.	.	.	.	.
=17	=17	=17	=17	=17	=17	=17	=17	=17	=17
4GG	che	4Bn	se-	0r	.	4dd	che	4r	.
4AA	vi	4c	-guo in	.	.	4cc	vi	4a	Tal
4BB-	se-	4d	dar-	.	.	4b-	se-	4d	che
4C	-guo in	8cL	.	.	.	4a	-guo in	4e	vi
.	.	8BJ	.	.	.	.	.	.	.
4D	dar-	4A	.	.	.	4a	dar-	4f#X	se-
4E	-no e	4c	-no e	.	.	4g	-no e	4g	-guo in
4F	vi	4c	vi	.	.	4f	vi	4a	dar-
4G	de-	4B	de-	.	.	4d	de-	4g	-no e
=18	=18	=18	=18	=18	=18	=18	=18	=18	=18
1D	-si-	4.A	-si-	1r	.	1d	-si-	4f#X	vi
.	.	.	.	.	.	.	.	2g	de-
.	.	8G	.	.	.	.	.	.	.
.	.	2A	.	.	.	.	.	.	.
.	.	.	.	.	.	.	.	4f#X	-si-
2GG	-o,	1G	-o,	2r	.	2d	-o,	4g	-o,
.	.	.	.	.	.	.	.	4dd	Tal
2r	.	.	.	4r	.	2r	.	4g	che
.	.	.	.	4d	Tal	.	.	4a	vi
=19	=19	=19	=19	=19	=19	=19	=19	=19	=19
0r	.	0r	.	4G	che	4r	.	4b-	se-
.	.	.	.	4A	vi	4a	Tal	4cc	-guo in
.	.	.	.	4B-	se-	4d	che	4dd	dar-
.	.	.	.	4c	-guo in	4e	vi	8ccL	.
.	.	.	.	.	.	.	.	8b-J	.
.	.	.	.	4d	dar-	4f#X	se-	4a	.
.	.	.	.	4e	-no e	4g	-guo in	4cc	-no e
.	.	.	.	4f	vi	4a	dar-	4cc	vi
.	.	.	.	4g	de-	4g	-no e	4b-	de-
=20	=20	=20	=20	=20	=20	=20	=20	=20	=20
1r	.	0r	.	1d	-si-	4f#X	vi	4.a	-si-
.	.	.	.	.	.	2g	de-	.	.
.	.	.	.	.	.	.	.	8g	.
.	.	.	.	.	.	.	.	2a	.
.	.	.	.	.	.	4f#X	-si-	.	.
2r	.	.	.	4G	-o,	[1g	-o,	2bn	-o,
.	.	.	.	4g	Tal	.	.	.	.
4r	.	.	.	4c	che	.	.	2r	.
4G	Tal	.	.	4d	vi	.	.	.	.
=21	=21	=21	=21	=21	=21	=21	=21	=21	=21
4C	che	4r	.	4e	se-	1g]	.	2r	.
4D	vi	4d	Tal	4f#X	-guo in	.	.	.	.
4E	se-	4G	che	4g	dar-	.	.	2cc	Tal
4F	-guo in	4A	vi	8fniL	.	.	.	.	.
.	.	.	.	8eJ	.	.	.	.	.
2.G	dar-	4Bn	se-	2.d	.	2r	.	4g	che
.	.	4c	-guo in	.	.	.	.	4a	vi
.	.	4d	dar-	.	.	2g	e	4bn	se-
4E	-no e	8cL	.	4g	-no e	.	.	4cc	-guo in
.	.	8BJ	.	.	.	.	.	.	.
=22	=22	=22	=22	=22	=22	=22	=22	=22	=22
2F	vi	4A	.	2f	vi	2a	vi	4dd	dar-
.	.	4c	-no e	.	.	.	.	4a	-no e
2G	de-	4B-	vi	2d	de-	1g	de-	4.b-Xi	vi
.	.	4B-	de-	.	.	.	.	.	.
.	.	.	.	.	.	.	.	8cc	de-
1D	-si-	1A	-si-	1d	-si-	.	.	1dd	-si-
.	.	.	.	.	.	2f#X	-si-	.	.
=23	=23	=23	=23	=23	=23	=23	=23	=23	=23
0GGl	-o.	0Gl	-o.	0dl	-o.	0gl	-o.	0bnl	-o.
=||24	=||24	=||24	=||24	=||24	=||24	=||24	=||24	=||24	=||24
!!LO:TX:a:t=Seconda parte.
0r	.	1r	.	4r	.	1r	.	2d	Voi
.	.	.	.	4d	Voi	.	.	.	.
.	.	.	.	4c#X	se-	.	.	4e	se-
.	.	.	.	4c#	-te	.	.	4e	-te
.	.	2r	.	4.d	bel-	2r	.	8f#XL	bel-
.	.	.	.	.	.	.	.	8gJ	.
.	.	.	.	.	.	.	.	2a	.
.	.	.	.	8cni	.	.	.	.	.
.	.	4r	.	8B-L	.	2d	Voi	.	.
.	.	.	.	8AJ	.	.	.	.	.
.	.	4d	Voi	4B-	.	.	.	4g	.
=25	=25	=25	=25	=25	=25	=25	=25	=25	=25
0r	.	4c#X	se-	2A	-la,	4e	se-	1a	-la,
.	.	4c#	-te	.	.	4e	-te	.	.
.	.	4.d	bel-	2r	.	8f#XL	bel-	.	.
.	.	.	.	.	.	8gJ	.	.	.
.	.	.	.	.	.	2a	.	.	.
.	.	8cni	.	.	.	.	.	.	.
.	.	8B-L	.	2d	<Voi	.	.	4r	.
.	.	8AJ	.	.	.	.	.	.	.
.	.	4B-	.	.	.	4g	.	4d	<Voi
.	.	2A	.	4c#X	se-	2a	-la,	4e	se-
.	.	.	.	4c#	-te	.	.	4e	-te
=26	=26	=26	=26	=26	=26	=26	=26	=26	=26
2D	Voi	2A	-la,	2d	bel-	4r	.	4.f#X	bel-
.	.	.	.	.	.	4d	<Voi	.	.
.	.	.	.	.	.	.	.	8g	.
4C#X	se-	2r	.	2A	-la,>	4e	se-	2a	.
4C#	-te	.	.	.	.	4e	-te	.	.
4.D	bel-	1r	.	4r	.	8f#XL	bel-	2a	-la,>
.	.	.	.	.	.	8gJ	.	.	.
.	.	.	.	4A	Voi	2a	.	.	.
8Cni	.	.	.	.	.	.	.	.	.
8BB-L	.	.	.	8B-	se-	.	.	4r	.
8AAJ	.	.	.	8c	-te	.	.	.	.
4BB-	.	.	.	[4d	bel-	4g	.	4d	Voi
=27	=27	=27	=27	=27	=27	=27	=27	=27	=27
2AA	.	2r	.	4d]	.	1a	-la,>	4e	se-
.	.	.	.	4c#Xi	.	.	.	4e	-te
1D	-la,	4r	.	1d	-la,	.	.	4.f#X	bel-
.	.	4A	<Voi	.	.	.	.	.	.
.	.	.	.	.	.	.	.	8g	.
.	.	4F#X	se-	.	.	4r	.	2a	.
.	.	4F#	-te	.	.	4a	Voi	.	.
2r	.	4.G	bel-	4r	.	8b-	se-	[2g	-la,
.	.	.	.	.	.	8cc	-te	.	.
.	.	.	.	4B-	<Voi	[4dd	bel-	.	.
.	.	8Fni	.	.	.	.	.	.	.
=28	=28	=28	=28	=28	=28	=28	=28	=28	=28
4r	.	2E	.	4G	se-	4dd]	.	2g]	.
4G	<Voi	.	.	4G	-te	4cc#Xi	.	.	.
4F#X	se-	4D	-la,>	2A	bel-	1dd	.	2r	.
4F#	-te	4A	Voi	.	.	.	.	.	.
4.G	bel-	8B-	se-	2G	-la,>	.	.	4r	.
.	.	8c	-te	.	.	.	.	.	.
.	.	2d	bel-	.	.	.	.	4d	<Voi
8Fni	.	.	.	.	.	.	.	.	.
2E	.	.	.	2r	.	2g	-la,	8e	se-
.	.	.	.	.	.	.	.	8fni	-te
.	.	4c#Xi	.	.	.	.	.	[4g	bel-
=29	=29	=29	=29	=29	=29	=29	=29	=29	=29
1D	-la,>	2d	-la,	4r	.	0r	.	4g]	.
.	.	.	.	2a	ma	.	.	4f#X	-la,>
.	.	4r	.	.	.	.	.	4r	.
.	.	4d	ma	4f	sì	.	.	4fni	ma
1r	.	4Bn	sì	2g	du-	.	.	4d	sì
.	.	2c	du-	.	.	.	.	2e	du-
.	.	.	.	4e	-ra e	.	.	.	.
.	.	8B-XiL	.	[4a	fred-	.	.	8dL	.
.	.	8AJ	.	.	.	.	.	8cJ	.
=30	=30	=30	=30	=30	=30	=30	=30	=30	=30
1r	.	4.B-	.	8a]L	.	1r	.	4.d	.
.	.	.	.	8gJ	.	.	.	.	.
.	.	.	.	2g	.	.	.	.	.
.	.	8c	-ra e	.	.	.	.	8e	-ra e
.	.	2A	fred-	.	.	.	.	2c	fre-
.	.	.	.	4f#Xi	.	.	.	.	.
2r	.	1G	-da,	1g	-da,	2r	.	2d	-da,
4r	.	.	.	.	.	2dd	ma	4r	.
[4G	ma	.	.	.	.	.	.	[4b-	ma
=31	=31	=31	=31	=31	=31	=31	=31	=31	=31
4G]	.	0r	.	1r	.	4b-	sì	4b-]	.
4E	sì	.	.	.	.	2cc	du-	4g	sì
2.F	du-	.	.	.	.	.	.	2.a	du-
.	.	.	.	.	.	8b-L	.	.	.
.	.	.	.	.	.	8aJ	.	.	.
.	.	.	.	2r	.	4cc	-ra e	.	.
8EL	.	.	.	.	.	2dd	fred-	8gL	.
8DJ	.	.	.	.	.	.	.	8fJ	.
4E-X	.	.	.	4r	.	.	.	2g	.
4E-	-ra e	.	.	[4g	ma	4cc	.	.	.
=32	=32	=32	=32	=32	=32	=32	=32	=32	=32
0D	fred-	2d	ma	4g]	.	2dd	-da,	4a	-ra e
.	.	.	.	4f	sì	.	.	2b-	fred-
.	.	4B-	sì	4d	du-	2r	.	.	.
.	.	2c	du-	4e	-ra e	.	.	8aL	.
.	.	.	.	.	.	.	.	8gJ	.
.	.	.	.	4f#X	fred-	4r	.	4.a	.
.	.	4B-	-ra e	2g	.	4dd	e	.	.
.	.	.	.	.	.	.	.	8g	.
.	.	2A	fred-	.	.	2dd	fred-	2a	.
.	.	.	.	4f#X	.	.	.	.	.
=33	=33	=33	=33	=33	=33	=33	=33	=33	=33
2GG	-da	2G	-da	1g	-da	1dd	-da	1b-	-da
2G	Co-	4r	.	.	.	.	.	.	.
.	.	4B-	Co-	.	.	.	.	.	.
4.G	-me	4.B-	-me	4r	.	1r	.	1r	.
.	.	.	.	4d	Co-	.	.	.	.
8A	ge-	8c	ge-	.	.	.	.	.	.
4B-	-la-	4d	-la-	4.d	-me	.	.	.	.
4G	-ta	4B-	-ta	.	.	.	.	.	.
.	.	.	.	8e	ge-	.	.	.	.
=34	=34	=34	=34	=34	=34	=34	=34	=34	=34
1F	fon-	4A	fon-	4f	-la-	1r	.	1r	.
.	.	2B-	.	4d	-ta	.	.	.	.
.	.	.	.	2c	fon-	.	.	.	.
.	.	4A	.	.	.	.	.	.	.
2BB-	-te	4B-	-te	4d	-te	4r	.	4r	.
.	.	4B-	In	4f	In	4dd	In	4b-	In
2r	.	4G	hor-	4.g	hor-	4.dd	hor-	4.b-	hor-
.	.	4G	-ri-	.	.	.	.	.	.
.	.	.	.	8g	-ri-	8ee	-ri-	8b-	-ri-
=35	=35	=35	=35	=35	=35	=35	=35	=35	=35
0r	.	2A	-de Al-	2e	-de Al-	2cc#X	-de Al-	2.a	-de Al-
.	.	2D	-pe o	2d	-pe o	4dd	-pe o	.	.
.	.	.	.	.	.	2dd	bel	4a	-pe o
.	.	8DL	bel	4f	bel	.	.	8aL	bel
.	.	8E	.	.	.	.	.	8g	.
.	.	8F	.	4f	chri-	4ccni	chri-	8a	.
.	.	8GJ	.	.	.	.	.	8b-J	.
.	.	4A	.	4e	-stal-	4cc	-stal-	4cc	.
.	.	4B-	chri-	4d	.	8b-L	.	4dd	chri-
.	.	.	.	.	.	8aJ	.	.	.
=36	=36	=36	=36	=36	=36	=36	=36	=36	=36
1r	.	4c	-stal-	8eL	.	4g	.	4cc	-stal-
.	.	.	.	8fJ	.	.	.	.	.
.	.	4c	-lo in	2g	.	4ee-X	-lo in	4cc	-lo in
.	.	2d	mon-	.	.	2dd	mon-	2a	mon-
.	.	.	.	4f#Xi	-lo in	.	.	.	.
4r	.	1G	-te;	4g	mon-	4dd	-te,	4b-	-te,
4GG	o	.	.	4d	-te, o	4b-	o	2g	o
8GGL	bel	.	.	8dL	bel	4b-	bel	.	.
8AA	.	.	.	8c	.	.	.	.	.
8BB-	.	.	.	8d	.	4b-	chri-	[4dd	bel
8CJ	.	.	.	8eJ	.	.	.	.	.
=37	=37	=37	=37	=37	=37	=37	=37	=37	=37
4D	.	0r	.	4f	.	4a	-stal-	4dd]	.
4E	chri-	.	.	4e	chri-	4g	-lo in	4cc	chri-
4F	-stal-	.	.	4c	-stal-	8aL	.	8ccL	-stal-
.	.	.	.	.	.	8b-J	.	8b-J	.
4F	-lo in	.	.	4f	-lo in	4.cc	mon-	4.a	.
4.G	mon-	.	.	1d	mon-	.	.	.	.
.	.	.	.	.	.	8b-L	.	8g	-lo in
.	.	.	.	.	.	8b-	.	2g	mon-
16FL	.	.	.	.	.	16a	.	.	.
16EJ	.	.	.	.	.	16gJ	.	.	.
2D	.	.	.	.	.	2a	.	.	.
.	.	.	.	.	.	.	.	4f#Xi	.
=38	=38	=38	=38	=38	=38	=38	=38	=38	=38
1GG	-te;	2r	.	2Bn	-te;	2g	-te;	2g	-te;
.	.	1d	Né	2r	.	4r	.	2r	.
.	.	.	.	.	.	2b-	Né	.	.
1r	.	.	.	1r	.	.	.	4r	.
.	.	.	.	.	.	2a	ve	4f	Né
.	.	4c	ve	.	.	.	.	4e	ve
.	.	4B-	ri-	.	.	4g	ri-	4d	ri-
=39	=39	=39	=39	=39	=39	=39	=39	=39	=39
2r	.	4A	-scal-	2r	.	4f	-scal-	4c	-scal-
.	.	4B-	-da il	.	.	4d	-da il	2f	-da il
2B-	Né	2G	fo-	4r	.	2g	fo-	.	.
.	.	.	.	4G	Né	.	.	4e	fo-
2A	ve	4F	-co,	2.c	ve	2a	-co	2f	-co
.	.	4f	<Né	.	.	.	.	.	.
2G	ri-	4e	ve	.	.	2r	.	2r	.
.	.	4d	ri-	4B-	ri-	.	.	.	.
=40	=40	=40	=40	=40	=40	=40	=40	=40	=40
4F#X	-scal-	2.d	-scal-	4A	-scal-	0r	.	4r	.
4G	-da il	.	.	4B-	-da il	.	.	4d	De
2E-X	fo-	.	.	4.B-	fo-	.	.	1g	miei
.	.	4c	-da il	.	.	.	.	.	.
.	.	.	.	16AL	.	.	.	.	.
.	.	.	.	16GJ	.	.	.	.	.
2.D	-co	2B-	fo-	2d	.	.	.	.	.
.	.	4A	-co>	4d	-co	.	.	2f#X	pen-
4D	De	4A	De	4d	De	.	.	.	.
=41	=41	=41	=41	=41	=41	=41	=41	=41	=41
2E-X	miei	8G	miei	4.B-	miei	0r	.	4g	-sie-
.	.	8A	pen-	.	.	.	.	.	.
.	.	2B-	-sie-	.	.	.	.	4g	-ri,
.	.	.	.	16cL	.	.	.	.	.
.	.	.	.	16dJ	.	.	.	.	.
2C	pen-	.	.	4e-X	.	.	.	2r	.
.	.	4A	.	4e-	pen-	.	.	.	.
4BB-	-sie-	4B-	-ri,	4d	-sie-	.	.	1r	.
4BB-	-ri, e	4d	e	4f	-ri, e	.	.	.	.
4BB-	so-	4d	so-	4f	so-	.	.	.	.
4BB-	-no ac-	4d	-no ac-	4f	-no ac-	.	.	.	.
=42	=42	=42	=42	=42	=42	=42	=42	=42	=42
2C	-ce-	4c	-ce-	4eni	-ce-	0r	.	0r	.
.	.	4B-	.	4d	.	.	.	.	.
2C	-so e	4A	.	4c	.	.	.	.	.
.	.	4G	.	4B-	.	.	.	.	.
1D	ro-	4F#X	-so e	4A	.	.	.	.	.
.	.	2G	ro-	4G	-so e	.	.	.	.
.	.	.	.	2A	ro-	.	.	.	.
.	.	4F#X	.	.	.	.	.	.	.
=43	=43	=43	=43	=43	=43	=43	=43	=43	=43
1GG	-co,	1G	-co,	2G	-co,	2r	.	2r	.
.	.	.	.	2d	De	2dd	De	2b-	<De
1r	.	1r	.	2e-X	miei	4.b-	miei	8g	miei
.	.	.	.	.	.	.	.	8a	pen-
.	.	.	.	.	.	.	.	2b-	-sie-
.	.	.	.	.	.	16ccL	.	.	.
.	.	.	.	.	.	16ddJ	.	.	.
.	.	.	.	2c	pen-	4ee-X	.	.	.
.	.	.	.	.	.	4ee-	pen-	4a	.
=44	=44	=44	=44	=44	=44	=44	=44	=44	=44
0r	.	0r	.	4B-	-sie-	4dd	-sie-	4b-	.
.	.	.	.	4B-	-ri, e	4ff	-ri e	4dd	-ri e
.	.	.	.	4B-	so-	4ff	so-	4dd	so-
.	.	.	.	4B-	-no ac-	4ff	-no ac-	4dd	-no ac-
.	.	.	.	2c	-ce-	4ee	-ce-	4cc	-ce-
.	.	.	.	.	.	4dd	.	4b-	-so e
.	.	.	.	2c	-so e	4cc	.	4a	ro-
.	.	.	.	.	.	4b-	.	4g	.
=45	=45	=45	=45	=45	=45	=45	=45	=45	=45
1r	.	0r	.	1d	ro-	4a	-so e	4f#X	.
.	.	.	.	.	.	4g	ro-	2g	.
.	.	.	.	.	.	2a	.	.	.
.	.	.	.	.	.	.	.	4f#X	.
4r	.	.	.	1G	-co,	4g	-co,	1g	-co,
4B-	e	.	.	.	.	4dd	e	.	.
4B-	so-	.	.	.	.	4dd	so-	.	.
4B-	-no ac-	.	.	.	.	4dd	-no ac-	.	.
=46	=46	=46	=46	=46	=46	=46	=46	=46	=46
8AL	-ce-	4r	.	4r	.	8ccL	-ce-	0r	.
8G	.	.	.	.	.	8b-	.	.	.
8F	.	4d	e	4f	e	8a	.	.	.
8EJ	.	.	.	.	.	8gJ	.	.	.
4D	.	4d	so-	4f	so-	4a	.	.	.
4BB-	.	4d	-no ac-	4f	-no ac-	4b-	-so e	.	.
2C	-so e	8cL	-ce-	8eL	-ce-	4g	ro-	.	.
.	.	8B-	.	8d	.	.	.	.	.
.	.	8A	.	8c	.	8fL	.	.	.
.	.	8GJ	.	8B-J	.	8eJ	.	.	.
2D	ro-	4F#X	.	4A	.	2d	.	.	.
.	.	4F#	-so e	4A	-so e	.	.	.	.
=47	=47	=47	=47	=47	=47	=47	=47	=47	=47
4GG	-co,	4.G	ro-	4.B-	ro-	2d	-co,	4r	.
4G	e	.	.	.	.	.	.	4b-	e
.	.	8A	.	8c	.	.	.	.	.
4G	so-	2B-	.	4.d	.	2r	.	4b-	so-
4G	-no ac-	.	.	.	.	.	.	4b-	-no ac-
.	.	.	.	8e	.	.	.	.	.
8FL	-ce-	4c	-co,	2f	.	4r	.	8aL	-ce-
8E	.	.	.	.	.	.	.	8g	.
8D	.	4d	e	.	.	4ff	e	8f	.
8CJ	.	.	.	.	.	.	.	8eJ	.
2BB-	.	4d	so-	2f	-co,	4ff	so-	4d	.
.	.	4d	-no ac-	.	.	4ff	-no ac-	4b-	-so e
=48	=48	=48	=48	=48	=48	=48	=48	=48	=48
1C	-so e	4c	-ce-	2r	.	4ee	-ce-	2g	ro-
.	.	4B-	.	.	.	4dd	.	.	.
.	.	4A	.	2e	ac-	4cc	.	1a	.
.	.	4G	.	.	.	4b-	.	.	.
[1D	ro-	2F	.	2f	-ce-	2a	.	.	.
.	.	2B-	-so e	2d	-so e	2dd	-so e	[2g	.
=49	=49	=49	=49	=49	=49	=49	=49	=49	=49
1D]	.	1A	ro-	1d	ro-	1dd	ro-	2g]	.
.	.	.	.	.	.	.	.	2f#Xi	.
1GGl	-co.	1Gl	-co.	1dl	-co.	1bnl	-co.	1gl	-co.
=||50	=||50	=||50	=||50	=||50	=||50	=||50	=||50	=||50	=||50
!!LO:TX:a:t=Terza parte.
0r	.	2r	.	2d	Voi	0r	.	4r	.
.	.	.	.	.	.	.	.	4a	Voi
.	.	4r	.	4.c	se-	.	.	8eL	se-
.	.	.	.	.	.	.	.	8d	.
.	.	4A	Voi	.	.	.	.	8e	.
.	.	.	.	8A	-te	.	.	8fJ	.
.	.	4G	se-	8BnL	bel-	.	.	4g	.
.	.	.	.	8cJ	.	.	.	.	.
.	.	4D	-te	2d	.	.	.	4f	-te
.	.	2A	bel-	.	.	.	.	2e	bel-
.	.	.	.	4c#X	.	.	.	.	.
=51	=51	=51	=51	=51	=51	=51	=51	=51	=51
2r	.	4D	-la,	2d	-la,	4r	.	4d	-la,
.	.	4d	<Voi	.	.	4a	Voi	4f	<Voi
4r	.	4.c	se-	2r	.	8eL	se-	4g	se-
.	.	.	.	.	.	8d	.	.	.
4A	Voi	.	.	.	.	8e	.	4a	-te
.	.	8A	-te	.	.	8fJ	.	.	.
4G	se-	8BnL	bel-	1r	.	4g	.	4d	bel-
.	.	8cJ	.	.	.	.	.	.	.
4D	-te	2d	.	.	.	4f	-te	4d	-la,>
2A	bel-	.	.	.	.	2e	bel-	2r	.
.	.	4c#Xi	.	.	.	.	.	.	.
=52	=52	=52	=52	=52	=52	=52	=52	=52	=52
4D	-la,	2d	-la,>	4r	.	4d	-la,	4r	.
4G	<Voi	.	.	4B-	<Voi	4d	<Voi	4dd	Voi
4.F	se-	2r	.	4.c	se-	4f	se-	8aL	se-
.	.	.	.	.	.	.	.	8g	.
.	.	.	.	.	.	4f	-te	8a	.
8D	-te	.	.	8d	-te	.	.	8b-J	.
8EL	bel-	1r	.	2G	bel-	4e	bel-	4cc	.
8FJ	.	.	.	.	.	.	.	.	.
2G	.	.	.	.	.	4d	-la,>	4b-	-te
.	.	.	.	2d	-la,>	2r	.	2a	bel-
4F#X	.	.	.	.	.	.	.	.	.
=53	=53	=53	=53	=53	=53	=53	=53	=53	=53
2G	-la,>	2r	.	4r	.	2dd	Voi	4g	-la,
.	.	.	.	4g	Voi	.	.	4b-	Voi
2r	.	4r	.	4.f	se-	8aL	se-	4cc	se-
.	.	.	.	.	.	8g	.	.	.
.	.	4d	Voi	.	.	8a	.	4dd	-te
.	.	.	.	8d	-te	8b-J	.	.	.
1r	.	4c	se-	8eL	bel-	4cc	.	4g	bel-
.	.	.	.	8fJ	.	.	.	.	.
.	.	4G	-te	2g	.	4b-	-te	4g	-la,
.	.	2d	bel-	.	.	2a	bel-	2r	.
.	.	.	.	4f#X	.	.	.	.	.
=54	=54	=54	=54	=54	=54	=54	=54	=54	=54
2r	.	4G	-la,	2g	-la,	4g	-la,	2dd	Voi
.	.	4g	Voi	.	.	4bn	<Voi	.	.
4r	.	4.f	se-	2r	.	4cc	se-	8aL	se-
.	.	.	.	.	.	.	.	8g	.
4d	Voi	.	.	.	.	4dd	-te	8a	.
.	.	8d	-te	.	.	.	.	8b-J	.
4c	se-	8eL	bel-	1r	.	4g	bel-	4cc	.
.	.	8fJ	.	.	.	.	.	.	.
4G	-te	2g	.	.	.	4g	-la,>	4b-	-te
2d	bel-	.	.	.	.	2r	.	2a	bel-
.	.	4f#X	.	.	.	.	.	.	.
=55	=55	=55	=55	=55	=55	=55	=55	=55	=55
2G	-la,	2g	-la,	2r	.	2r	.	4g	-la,
.	.	.	.	.	.	.	.	2dd	ma
2r	.	4d	ma	4.a	ma	4.ff	ma	.	.
.	.	4A	fal-	.	.	.	.	4cc	fal-
.	.	.	.	8a	fal-	8ee	fal-	.	.
1r	.	4B-	-la-	4f	-la-	4dd	-la-	4b-	-la-
.	.	4G	-ce e	4g	-ce e	2dd	-ce e	4b-	-ce e
.	.	2A	ri-	2e	ri-	.	.	2a	ri-
.	.	.	.	.	.	4cc#X	ri-	.	.
=56	=56	=56	=56	=56	=56	=56	=56	=56	=56
2r	.	2D	-a,	2f#X	-a,	2dd	-a,	2a	-a
4G	ma	4.d	ma	4g	ma	4.b-	ma	2r	.
4D	fal-	.	.	4fni	fal-	.	.	.	.
.	.	8d	fal-	.	.	8a	fal-	.	.
4E-X	-la-	4B-	-la-	4e-X	-la-	4g	-la-	1r	.
4C	-ce e	4c	-ce e	4e-	-ce e	2g	-ce e	.	.
2D	ri-	2A	ri-	2d	ri-	.	.	.	.
.	.	.	.	.	.	4f#X	ri-	.	.
=57	=57	=57	=57	=57	=57	=57	=57	=57	=57
2GG	-a	2G	-a	2d	-a	2g	-a	4dd	Co-
.	.	.	.	.	.	.	.	4dd	-me
1G	Co-	2r	.	2r	.	4dd	Co-	4b-	sco-
.	.	.	.	.	.	4dd	-me	8b-	-glio
.	.	.	.	.	.	.	.	8cc	tra
.	.	4d	Co-	2r	.	4b-	sco-	8ddL	l'on-
.	.	.	.	.	.	.	.	8cc	.
.	.	4d	-me	.	.	8b-	-glio	8b-	.
.	.	.	.	.	.	8cc	tra	8aJ	.
2G	-me	4B-	sco-	4d	Co-	8ddL	l'on-	4g	.
.	.	.	.	.	.	8cc	.	.	.
.	.	8B-	-glio	4d	-me	8b-	.	4g	-de,
.	.	8c	tra	.	.	8aJ	.	.	.
=58	=58	=58	=58	=58	=58	=58	=58	=58	=58
1G	sco-	8dL	l'on-	4B-	sco-	4g	.	4dd	Co-
.	.	8c	.	.	.	.	.	.	.
.	.	8B-	.	8B-	-glio	4g	-de,	4dd	-me
.	.	8AJ	.	8c	tra	.	.	.	.
.	.	4G	.	8dL	l'on-	2r	.	4b-	sco-
.	.	.	.	8c	.	.	.	.	.
.	.	4G	-de,	8d	.	.	.	8b-	-glio
.	.	.	.	8eJ	.	.	.	8b-	tra
2F	-glio	2r	.	2f	.	4cc	Co-	8aL	l'on-
.	.	.	.	.	.	.	.	8g	.
.	.	.	.	.	.	4cc	-me	8a	.
.	.	.	.	.	.	.	.	8b-J	.
2F	tra	4c	<Co-	2f	-de,	4a	sco-	8ccL	.
.	.	.	.	.	.	.	.	8b-	.
.	.	4c	-me	.	.	8a	-glio	8a	.
.	.	.	.	.	.	8b-	tra	8gJ	.
=59	=59	=59	=59	=59	=59	=59	=59	=59	=59
1F	l'on-	4A	sco-	4c	<Co-	8ccL	l'on-	4f	.
.	.	.	.	.	.	8b-	.	.	.
.	.	8A	-glio	4c	-me	8a	.	4f	-de,
.	.	8B-	tra	.	.	8gJ	.	.	.
.	.	8cL	l'on-	4A	sco-	4f	.	4cc	<Co-
.	.	8B-	.	.	.	.	.	.	.
.	.	8A	.	8A	-glio	4f	-de,	4cc	-me
.	.	8GJ	.	8B-	tra	.	.	.	.
2F	-de	4A	.	8cL	l'on-	4cc	<Co-	4f	sco-
.	.	.	.	8B-	.	.	.	.	.
.	.	4F	-de>	8A	.	4cc	-me	8a	-glio
.	.	.	.	8GJ	.	.	.	8b-	tra
2F	O	2r	.	4A	.	4a	sco-	8ccL	l'on-
.	.	.	.	.	.	.	.	8b-J	.
.	.	.	.	4F	-de>	8a	-glio	4a	.
.	.	.	.	.	.	8b-	tra	.	.
=60	=60	=60	=60	=60	=60	=60	=60	=60	=60
2E-X	len-	2G	O	4r	.	4cc	l'on-	2g	-de>
.	.	.	.	4B-	O	8b-L	.	.	.
.	.	.	.	.	.	8aJ	.	.	.
2E-	-to	4G	len-	4B-	len-	1g	.	2r	.
.	.	4A	-to	4c	-to	.	.	.	.
2D	vi-	4B-	vi-	2d	vi-	.	.	1r	.
.	.	8AL	.	.	.	.	.	.	.
.	.	8GJ	.	.	.	.	.	.	.
2D	-sco	4A	.	2d	-sco	2f#X	-de>	.	.
.	.	4A	-sco	.	.	.	.	.	.
=61	=61	=61	=61	=61	=61	=61	=61	=61	=61
4.D	fra	4.F	fra	4.A	fra	0r	.	0r	.
8BB-	le	8B-	le	8d	le	.	.	.	.
4C	ver-	4A	ver-	4c	ver-	.	.	.	.
4D	-di	4F	-di	4A	-di	.	.	.	.
1GG	fron-	8GL	fron-	8BnL	fron-	.	.	.	.
.	.	8AJ	.	8cJ	.	.	.	.	.
.	.	2B-	.	2d	.	.	.	.	.
.	.	8AL	.	8cL	.	.	.	.	.
.	.	8GJ	.	8B-XiJ	.	.	.	.	.
=62	=62	=62	=62	=62	=62	=62	=62	=62	=62
2D	-de,	2F#X	.	2A	.	2r	.	2r	.
2r	.	2G	-de,	4G	-de,	4r	.	4r	.
.	.	.	.	4B-	O in	4dd	O in	4b-	O in
1r	.	1r	.	4c	mez-	4cc	mez-	4g	mez-
.	.	.	.	4d	-zo	4a	-zo	4f#X	-zo
.	.	.	.	8GL	l'her-	[2b-	l'her-	4.g	l'her-
.	.	.	.	8A	.	.	.	.	.
.	.	.	.	8B-	.	.	.	.	.
.	.	.	.	8cJ	.	.	.	8e	-ba il
=63	=63	=63	=63	=63	=63	=63	=63	=63	=63
0r	.	1r	.	4d	.	4b-]	.	4f#X	lac-
.	.	.	.	4e-X	-ba il	8a	.	2g	.
.	.	.	.	.	.	8g	-ba il	.	.
.	.	.	.	2d	lac-	2a	lac-	.	.
.	.	.	.	.	.	.	.	4f#X	.
.	.	4r	.	4G	-cio,	4g	-cio,	4g	-cio,
.	.	4G	So-	2g	So-	4b-	So-	2dd	So-
.	.	[2d	-a-	.	.	[2a	-a-	.	.
.	.	.	.	[4f	-a-	.	.	[4dd	-a-
=64	=64	=64	=64	=64	=64	=64	=64	=64	=64
0r	.	4d]	.	4f]	.	4a]	.	4dd]	.
.	.	4A	-ve	4e	-ve	4a	-ve	4cc	-ve
.	.	4B-	mio	4d	mio	4f	mio	4b-	mio
.	.	4G	ri-	4g	ri-	4b-	ri-	2dd	ri-
.	.	2A	-te-	2e	-te-	2.a	-te-	.	.
.	.	.	.	.	.	.	.	4cc#X	-te-
.	.	2d	-gno e	4f#X	-gno e	.	.	8ddL	-gno e
.	.	.	.	.	.	.	.	8eeJ	.
.	.	.	.	[4a	ca-	4dd	-gno e	4ff	.
=65	=65	=65	=65	=65	=65	=65	=65	=65	=65
1r	.	4e-X	ca-	4a]	.	4b-	ca-	4ee-X	ca-
.	.	4c	-ro im-	2g	-ro im-	4cc	-ro im-	4ee-	-ro im-
.	.	2d	-pac-	.	.	2a	-pac-	2dd	-pac-
.	.	.	.	4f#X	-pac-	.	.	.	.
4r	.	4G	-cio,	4g	-cio,	4bn	-cio,	2dd	-cio,
4GG	So-	4B-	So-	2g	So-	4dd	So-	.	.
[2D	-a-	[2A	-a-	.	.	[2dd	-a-	2r	.
.	.	.	.	[4fni	-a-	.	.	.	.
=66	=66	=66	=66	=66	=66	=66	=66	=66	=66
4D]	.	4A]	.	4f]	.	4dd]	.	0r	.
4AA	-ve	4A	-ve	4e	-ve	4cc	-ve	.	.
4BB-	mio	4F	mio	4d	mio	4b-X	mio	.	.
4GG	ri-	4G	ri-	2d	ri-	4b-	ri-	.	.
2AA	-te-	4E	-te-	.	.	2a	-te-	.	.
.	.	2A	-gno e	4c#X	-te-	.	.	.	.
2D	-gno e	.	.	2d	-gno e	2f	-gno e	.	.
.	.	4B-	ca-	.	.	.	.	.	.
=67	=67	=67	=67	=67	=67	=67	=67	=67	=67
4E-X	ca-	4G	-ro im-	4B-	ca-	4e-X	ca-	1r	.
4C	-ro im-	2G	-pac-	4cni	-ro im-	4e-	-ro im-	.	.
2D	-pac-	.	.	2A	-pac-	2d	-pac-	.	.
.	.	4F#X	.	.	.	.	.	.	.
2GG	-cio,	2G	-cio,	2G	-cio,	2d	-cio,	2r	.
2GG	So-	2G	So-	2g	So-	2b-	So-	2dd	So-
=68	=68	=68	=68	=68	=68	=68	=68	=68	=68
4D	-a-	4A	-a-	4.f	-a-	4.a	-a-	4.dd	-a-
4AA	-ve	4A	-ve	.	.	.	.	.	.
.	.	.	.	8e	-ve	8g	-ve	8cc	-ve
4BB-	mio	1D	mio	4d	mio	4f	mio	4b-	mio
4GG	ri-	.	.	4d	ri-	4g	ri-	4b-	ri-
1D	-te-	.	.	1d	-te-	1f#X	-te-	1a	-te-
.	.	2A	ri-	.	.	.	.	.	.
=69	=69	=69	=69	=69	=69	=69	=69	=69	=69
2C	-gno e	2c	-te-	2G	-gno e	2g	-gno e	2ee	-gno e
1BB-	ca-	1F	-gno e	2.b-	ca-	1dd	ca-	1ff	ca-
.	.	.	.	4a	.	.	.	.	.
2C	-ro im-	[2c	ca-	2g	.	4cc	.	2ee-X	-ro im-
.	.	.	.	.	.	4b-	.	.	.
=70	=70	=70	=70	=70	=70	=70	=70	=70	=70
0D	-pac-	2c]	.	2f#X	-ro im-	2a	.	0dd	-pac-
.	.	2B-	-ro im-	1g	-pac-	2g	-ro im-	.	.
.	.	1A	-pac-	.	.	1a	-pac-	.	.
.	.	.	.	2f#X	.	.	.	.	.
=71	=71	=71	=71	=71	=71	=71	=71	=71	=71
0GGl	-cio.	0Gl	-cio.	0gl	-cio.	0bnl	-cio.	0ddl	-cio.
=||72	=||72	=||72	=||72	=||72	=||72	=||72	=||72	=||72	=||72
!!LO:TX:a:t=Quarta parte.
0r	.	0r	.	1B-	Voi	1dd	Voi	2r	.
.	.	.	.	.	.	.	.	2d	Voi
.	.	.	.	2A	se-	2cc	se-	4e	se-
.	.	.	.	.	.	.	.	4f	-te
.	.	.	.	2G	-te	2b-X	-te	[2g	bel-
=73	=73	=73	=73	=73	=73	=73	=73	=73	=73
0r	.	0r	.	1d	bel-	1a	bel-	4g]	.
.	.	.	.	.	.	.	.	8f#XL	.
.	.	.	.	.	.	.	.	8eJ	.
.	.	.	.	.	.	.	.	2f#X	.
.	.	.	.	2G	-la,	4g	-la,	2g	-la,
.	.	.	.	.	.	2dd	ma	.	.
.	.	.	.	2g	ma	.	.	2b-	ma
.	.	.	.	.	.	4b-	sde-	.	.
=74	=74	=74	=74	=74	=74	=74	=74	=74	=74
0r	.	0r	.	4e	sde-	4.cc	-gno-	4g	sde-
.	.	.	.	4.f	-gno-	.	.	4.a	-gno-
.	.	.	.	.	.	16b-L	.	.	.
.	.	.	.	.	.	16ccJ	.	.	.
.	.	.	.	.	.	8ddL	.	.	.
.	.	.	.	8eL	.	8cc	.	8gL	.
.	.	.	.	8d	.	8b-	.	8f	.
.	.	.	.	8cJ	.	8aJ	.	8eJ	.
.	.	.	.	4d	.	4b-	.	4f	.
.	.	.	.	4B-	-sa e	4dd	-sa e	2b-	-sa e
.	.	.	.	2f	schi-	2cc	schi-	.	.
.	.	.	.	.	.	.	.	4a	schi-
=75	=75	=75	=75	=75	=75	=75	=75	=75	=75
2r	.	2r	.	1B-	-va,	2b-	-va,	4b-	-va,
.	.	.	.	.	.	.	.	4f	Voi
2BB-	Voi	2d	Voi	.	.	4r	.	4f	se-
.	.	.	.	.	.	4d	Voi	4g	-te
2AA	se-	2c	se-	4r	.	4e	se-	2a	bel-
.	.	.	.	4A	Voi	4f	-te	.	.
2GG	-te	2B-	-te	4B-	se-	[2g	bel-	2d	-la,
.	.	.	.	4d	-te	.	.	.	.
=76	=76	=76	=76	=76	=76	=76	=76	=76	=76
1D	bel-	1A	bel-	1d	bel-	4g]	.	4r	.
.	.	.	.	.	.	8f#XiL	.	2dd	ma
.	.	.	.	.	.	8eJ	.	.	.
.	.	.	.	.	.	2f#X	.	.	.
.	.	.	.	.	.	.	.	4a	sde-
2GG	-la,	2G	-la,	4d	-la,	1g	-la,	8b-L	-gno-
.	.	.	.	.	.	.	.	8a	.
.	.	.	.	2d	ma	.	.	8b-	.
.	.	.	.	.	.	.	.	8ccJ	.
2G	ma	2B-	ma	.	.	.	.	4dd	.
.	.	.	.	4B-	sde-	.	.	4dd	-sa e
=77	=77	=77	=77	=77	=77	=77	=77	=77	=77
4E	sde-	4G	sde-	4.c	-gno-	0r	.	8ccL	schi-
.	.	.	.	.	.	.	.	8b-	.
4.F	-gno-	4.A	-gno-	.	.	.	.	8a	.
.	.	.	.	16B-L	.	.	.	8gJ	.
.	.	.	.	16cJ	.	.	.	.	.
.	.	.	.	8dL	.	.	.	2f	.
8EL	.	8GL	.	8c	.	.	.	.	.
8D	.	8F	.	8B-	.	.	.	.	.
8CJ	.	8EJ	.	8AJ	.	.	.	.	.
4D	.	8FL	.	4B-	-sa e	.	.	[1d	-va,
.	.	8GJ	.	.	.	.	.	.	.
4D	-sa e	2A	.	4.F	schi-	.	.	.	.
4.BB-	schi-	.	.	.	.	.	.	.	.
.	.	.	.	16GL	.	.	.	.	.
.	.	.	.	16AJ	.	.	.	.	.
.	.	4G	-sa e	4B-	.	.	.	.	.
8C	.	.	.	.	.	.	.	.	.
=78	=78	=78	=78	=78	=78	=78	=78	=78	=78
1D	.	4F#X	schi-	4.A	.	1r	.	1d]	.
.	.	2G	.	.	.	.	.	.	.
.	.	.	.	8G	.	.	.	.	.
.	.	.	.	2A	.	.	.	.	.
.	.	4F#	.	.	.	.	.	.	.
2GG	-va	2G	-va	4G	-va,	4r	.	4r	.
.	.	.	.	2g	ma	2b-	ma	4dd	ma
2r	.	2r	.	.	.	.	.	4b-	sde-
.	.	.	.	4e	sde-	4g	sde-	[4cc	-gno-
=79	=79	=79	=79	=79	=79	=79	=79	=79	=79
0r	.	0r	.	4.f	-gno-	4.a	-gno-	8cc]L	.
.	.	.	.	.	.	.	.	16b-	.
.	.	.	.	.	.	.	.	16ccJ	.
.	.	.	.	.	.	.	.	2dd	.
.	.	.	.	16eL	.	16gL	.	.	.
.	.	.	.	16fJ	.	16aJ	.	.	.
.	.	.	.	8gL	.	8b-L	.	.	.
.	.	.	.	8f	.	8a	.	.	.
.	.	.	.	8e	.	8g	.	8ccL	.
.	.	.	.	8dJ	.	8fJ	.	8b-J	.
.	.	.	.	4e	.	4g	.	4.cc	.
.	.	.	.	4f	-sa e	4.a	-sa e	.	.
.	.	.	.	.	.	.	.	8dd	-sa e
.	.	.	.	4.g	schi-	.	.	4.b-	schi-
.	.	.	.	.	.	8g	.	.	.
.	.	.	.	.	.	4g	.	.	.
.	.	.	.	16fL	.	.	.	16aL	.
.	.	.	.	16eJ	.	.	.	16gJ	.
=80	=80	=80	=80	=80	=80	=80	=80	=80	=80
1r	.	1r	.	1d	.	4f#X	schi-	4.a	.
.	.	.	.	.	.	2g	.	.	.
.	.	.	.	.	.	.	.	8g	.
.	.	.	.	.	.	.	.	2a	.
.	.	.	.	.	.	4f#	.	.	.
4r	.	4r	.	2G	-va	4g	-va	4g	-va
2G	Co-	2d	Co-	.	.	2bn	Co-	2g	Co-
.	.	.	.	2r	.	.	.	.	.
4G	-me	4d	-me	.	.	4b	-me	4g	-me
=81	=81	=81	=81	=81	=81	=81	=81	=81	=81
2F	Daf-	2f	Daf-	0r	.	2cc	Daf-	2a	Daf-
4F	-ne e	4f	-ne e	.	.	4cc	-ne e	4a	-ne e
4G	Si-	4d	Si-	.	.	4b-X	Si-	8gL	.
.	.	.	.	.	.	.	.	8fJ	.
1A	-rin-	4c#X	-rin-	.	.	1a	-rin-	4.e	.
.	.	2d	.	.	.	.	.	.	.
.	.	.	.	.	.	.	.	8d	Si-
.	.	.	.	.	.	.	.	2e	-rin-
.	.	4c#X	.	.	.	.	.	.	.
=82	=82	=82	=82	=82	=82	=82	=82	=82	=82
2D	-ga	2d	-ga,	4r	.	4a	-ga,	4f#X	-ga,
.	.	.	.	2d	Co-	2f#X	Co-	2a	Co-
2r	.	4D	Co-	.	.	.	.	.	.
.	.	4D	-me	4d	-me	4f#	-me	4a	-me
1r	.	2G	Daf-	2d	Daf-	2g	Daf-	2b-	Daf-
.	.	4A	-ne e	4c#X	-ne e	4e	-ne e	4a	-ne e
.	.	4B-	Si-	[4d	Si-	4d	Si-	4g	Si-
=83	=83	=83	=83	=83	=83	=83	=83	=83	=83
2r	.	2A	-rin-	4d]	.	2e	-rin-	2a	-rin-
.	.	.	.	4c#X	-rin-	.	.	.	.
4r	.	4D	-ga	2d	-ga	4d	-ga	4a	-ga
4D	O	4d	O	.	.	4f	O	4a	O
4A	s'al-	4c	s'al-	1r	.	4e	s'al-	4a	s'al-
4F	-tra	4f	-tra	.	.	4a	-tra	4cc	-tra
4G	nin-	4d	nin-	.	.	4g	nin-	4b-	nin-
4A	-fa in	4c	-fa in	.	.	4e	-fa in	4a	-fa in
=84	=84	=84	=84	=84	=84	=84	=84	=84	=84
8DL	bo-	2f	bo-	0r	.	4d	bo-	2.a	bo-
8E	.	.	.	.	.	.	.	.	.
8F	.	.	.	.	.	4dd	-scho è	.	.
8GJ	.	.	.	.	.	.	.	.	.
4A	.	4e	-sco è	.	.	8ccL	più	.	.
.	.	.	.	.	.	8b-	.	.	.
4F	-sco è	4f	più	.	.	8a	.	4cc	-sco è
.	.	.	.	.	.	8gJ	.	.	.
4B-	più	4d	so-	.	.	4f	.	4b-	più
4d	so-	2f	-lin-	.	.	4f	so-	4a	so-
2c	-lin-	.	.	.	.	2g	-lin-	2cc	-lin-
.	.	4e	.	.	.	.	.	.	.
=85	=85	=85	=85	=85	=85	=85	=85	=85	=85
4F	-ga,	2f	-ga,	4r	.	4a	-ga,	4cc	-ga,
2F	Co-	.	.	2f	Co-	2cc	Co-	2a	Co-
.	.	2r	.	.	.	.	.	.	.
4F	-me	.	.	4f	-me	4cc	-me	4a	-me
2B-	lei	1r	.	2f	lei	2dd	lei	2.b-	lei
4E-X	che	.	.	4g	che	4ee-Xi	che	.	.
4E-	d'Or-	.	.	4g	d'Or-	4ee-	d'Or-	4cc	che
=86	=86	=86	=86	=86	=86	=86	=86	=86	=86
1F	-fe-	1r	.	0f	-fe-	4dd	-fe-	4a	d'Or-
.	.	.	.	.	.	8ccL	.	2b-	-fe-
.	.	.	.	.	.	8b-J	.	.	.
.	.	.	.	.	.	2cc	.	.	.
.	.	.	.	.	.	.	.	4a	.
2BB-	-o	4r	.	.	.	4dd	-o	2b-	-o
.	.	4d	Fug-	.	.	4b-	Fug-	.	.
2r	.	4.d	-gì	.	.	8aL	-gì	4r	.
.	.	.	.	.	.	8g	.	.	.
.	.	.	.	.	.	8f	.	4dd	Fug-
.	.	8c	.	.	.	8eJ	.	.	.
=87	=87	=87	=87	=87	=87	=87	=87	=87	=87
1r	.	4.B-	.	2f	-o	4d	.	4.dd	-gì
.	.	.	.	.	.	4d	sot-	.	.
.	.	8A	.	.	.	.	.	8cc	.
.	.	4G	.	4r	.	8dL	-ter-	8b-L	.
.	.	.	.	.	.	8cJ	.	8aJ	.
.	.	4G	sot-	4d	Fug-	4B-	.	2g	.
4r	.	2D	-ter-	4.d	-gì	2A	-ra,	.	.
4d	Fug-	.	.	.	.	.	.	4f#X	sot-
.	.	.	.	8c	.	.	.	.	.
4.d	-gì	2G	-ra,	4.B-	.	4r	.	2g	-ter-
.	.	.	.	.	.	4dd	Fug-	.	.
8c	.	.	.	8A	.	.	.	.	.
=88	=88	=88	=88	=88	=88	=88	=88	=88	=88
4.B-	.	4r	.	8GL	.	4.dd	-gì	1g	-ra,
.	.	.	.	8A	.	.	.	.	.
.	.	4G	Fug-	8B-	.	.	.	.	.
8A	.	.	.	8cJ	.	8cc	.	.	.
4G	.	8GL	-gì	8dL	.	4b-	.	.	.
.	.	8A	.	8c	.	.	.	.	.
4G	sot-	8B-	.	8d	.	4b-	sot-	.	.
.	.	8cJ	.	8eJ	.	.	.	.	.
1D	-ter-	4d	.	4f#X	.	4.a	-ter-	4r	.
.	.	4B-	sot-	2g	sot-	.	.	4dd	Fug-
.	.	.	.	.	.	8g	.	.	.
.	.	2A	-ter-	.	.	2a	.	4.dd	-gì
.	.	.	.	4f#X	-ter-	.	.	.	.
.	.	.	.	.	.	.	.	8cc	.
=89	=89	=89	=89	=89	=89	=89	=89	=89	=89
2G	-ra e	2G	-ra e	2g	-ra e	2d	-ra e	4b-	.
.	.	.	.	.	.	.	.	4b-	sot-
2.F	sot-	4A	sot-	4c	sot-	4.f	sot-	4.a	-ter-
.	.	4B-	-to al	4B-	-to al	.	.	.	.
.	.	.	.	.	.	8g	-to al	8g	.
.	.	2c	mar,	4A	mar	1a	mar,	2.f	.
4E	-to al	.	.	4G	Al-	.	.	.	.
4.D	mar	2f	e	[2F	-fe-	.	.	.	.
.	.	.	.	.	.	.	.	4e	.
8C	.	.	.	.	.	.	.	.	.
=90	=90	=90	=90	=90	=90	=90	=90	=90	=90
1.BB-	.	4f	sot-	2F]	.	2r	.	2d	.
.	.	4e	-to al	.	.	.	.	.	.
.	.	4.d	mar	1f	.	4r	.	2b-	-ra e
.	.	.	.	.	.	4dd	e	.	.
.	.	8c	Al-	.	.	.	.	.	.
.	.	4B-	-fe-	.	.	4dd	sot-	4b-	sot-
.	.	4F	-o,	.	.	4dd	-to al	4b-	-to al
2C	Al-	2r	.	2e	-o,	4.cc	mar	4.a	mar
.	.	.	.	.	.	8b-	.	8g	.
=91	=91	=91	=91	=91	=91	=91	=91	=91	=91
0D	-fe-	2d	e	4r	.	8aL	.	8fL	.
.	.	.	.	.	.	8g	.	8e	.
.	.	.	.	4a	e	8f	.	8d	.
.	.	.	.	.	.	8eJ	.	8eJ	.
.	.	4.d	sot-	4a	sot-	4d	.	8fL	.
.	.	.	.	.	.	.	.	8gJ	.
.	.	.	.	4f	-to al	4d	Al-	4a	.
.	.	8c	-to al	.	.	.	.	.	.
.	.	4B-	mar	4f	mar	1dd	-fe-	4d	Al-
.	.	4B-	Al-	2g	Al-	.	.	4.dd	-fe-
.	.	2A	-fe-	.	.	.	.	.	.
.	.	.	.	.	.	.	.	8cc	.
.	.	.	.	4f#X	-fe-	.	.	4a	.
=92	=92	=92	=92	=92	=92	=92	=92	=92	=92
4GG	-o,	2G	-o,	0g	-o,	2dd	-o,	4bn	-o,
4G	Fug-	.	.	.	.	.	.	4dd	Fug-
4.G	-gì	2r	.	.	.	4r	.	8ddL	-gì
.	.	.	.	.	.	.	.	8cc	.
.	.	.	.	.	.	4b-	Fug-	8b-Xi	.
8F	.	.	.	.	.	.	.	8aJ	.
4.E-X	.	1r	.	.	.	8b-L	-gì	4g	.
.	.	.	.	.	.	8a	.	.	.
.	.	.	.	.	.	8g	.	4b-	sot-
8D	.	.	.	.	.	8fJ	.	.	.
4C	.	.	.	.	.	4e-X	.	2cc	-ter-
4C	sot-	.	.	.	.	4e-	sot-	.	.
=93	=93	=93	=93	=93	=93	=93	=93	=93	=93
1GG	-ter-	4r	.	4r	.	2d	-ter-	2bn	-ra,
.	.	4d	Fug-	4G	Fug-	.	.	.	.
.	.	4.d	-gì	8GL	-gì	2g	-ra,	4r	.
.	.	.	.	8A	.	.	.	.	.
.	.	.	.	8B-	.	.	.	4g	Fug-
.	.	8c	.	8cJ	.	.	.	.	.
1GG	-ra	4.B-	.	4.d	.	4r	.	8gL	-gì
.	.	.	.	.	.	.	.	8a	.
.	.	.	.	.	.	4g	Fug-	8b-Xi	.
.	.	8A	.	8c	.	.	.	8ccJ	.
.	.	4G	.	8B-L	.	8gL	-gì	4dd	.
.	.	.	.	8c	.	8a	.	.	.
.	.	4G	sot-	8d	.	8b-	.	4b-	sot-
.	.	.	.	8eJ	.	8ccJ	.	.	.
=94	=94	=94	=94	=94	=94	=94	=94	=94	=94
2r	.	2D	-ter-	4f#X	.	4dd	.	2a	-ter-
.	.	.	.	4f#	sot-	4d	sot-	.	.
4r	.	2G	-ra e	2g	-ter-	2.d	-ter-	1g	-ra
4G	e	.	.	.	.	.	.	.	.
4G	sot-	4B-	sot-	2d	-ra e	.	.	.	.
4G	-to al	4B-	-to al	.	.	4b-	-ra e	.	.
4.F	mar	8cL	mar,	[2fni	sot-	4a	sot-	4r	.
.	.	8B-	.	.	.	.	.	.	.
.	.	8A	.	.	.	4a	-to al	4cc	e
8E	.	8GJ	.	.	.	.	.	.	.
=95	=95	=95	=95	=95	=95	=95	=95	=95	=95
4.D	.	2F	.	2f]	.	8aL	mar,	2.dd	sot-
.	.	.	.	.	.	8g	.	.	.
.	.	.	.	.	.	8f	.	.	.
8C	.	.	.	.	.	8eJ	.	.	.
1BB-	.	4r	.	2f	-to al	2d	.	.	.
.	.	4F	e	.	.	.	.	4cc	-to al
.	.	4F	sot-	4.f	mar	2dd	e	2b-	mar
.	.	4F	-to al	.	.	.	.	.	.
.	.	.	.	8g	.	.	.	.	.
2C	Al-	[2c	mar	[2a	.	4cc	sot-	4a	.
.	.	.	.	.	.	4b-	-to al	4g	.
=96	=96	=96	=96	=96	=96	=96	=96	=96	=96
0D	-fe-	2c]	.	2a]	.	8aL	mar	4f	.
.	.	.	.	.	.	8g	.	.	.
.	.	.	.	.	.	8f	.	4d	Al-
.	.	.	.	.	.	8eJ	.	.	.
.	.	2B-	Al-	1g	Al-	4d	.	2.dd	-fe-
.	.	.	.	.	.	4d	Al-	.	.
.	.	1A	-fe-	.	.	1dd	-fe-	.	.
.	.	.	.	.	.	.	.	8ccL	.
.	.	.	.	.	.	.	.	8b-J	.
.	.	.	.	2f#X	-fe-	.	.	2a	.
=97	=97	=97	=97	=97	=97	=97	=97	=97	=97
0GGl	-o.	0Gl	-o.	0gl	-o.	0ddl	-o.	0bnl	-o.
==	==	==	==	==	==	==	==	==	==
*-	*-	*-	*-	*-	*-	*-	*-	*-	*-
!!!system-decoration: [*]
!!!RDF**kern: i = editorial accidental
!!!RDF**kern: l = terminal long
!!!ENC: Emiliano Ricciardi
!!!END: 2017/11
!!!EED: Deutsch, Catherine
!!!EEV: 2018/03/04
!!!YEC: Copyright 2018 Emiliano Ricciardi, All Rights Reserved
!!!ONB: Translated from MusicXML on 2018/03/04 and edited by Craig Stuart Sapp
!!@@BEGIN:	VERSEDATA
!!@SOLERTI:	1022
!!@CATALOGNUM:	Trm1022
!!@LAST_MODIFIED: 2020/07/12
!!@TITLE:		Voi sete bella, ma fugage e presta
!!@GENRE:		canzonetta
!!@MANUSRC:	E<sub>1</sub>, F<sub>2</sub>, V<sub>13/E1</sub>
!!@PRINTSRC:	27, 48, 70, 141, 145, 166, 169
!!@@BEGIN:	VERSES
!!@ABOUTIT:	Sovra la nana [Isabella] de la serenissima signora [Margherita d'Este] duchessa di Ferrara, bellissima di corpo e di mirabile ingegno.
!!@ABOUTEN:	About the dwarf [Isabella] of the most serene lady [Margherita d'Este] duchess of Ferrara, [who had] a most beautiful body and admirable ingenuity.
!!@EDITOR:	Solerti, Angelo
!!@EDITION_TITLE: Le Rime di Torquato Tasso
!!@EDITION_LOC:	Bologna
!!@EDITION_PUB:	Romagnoli-Dall’Acqua
!!@EDITION_DATE:  1898-1902
!!@EDITION_VOL:	4
!!@EDITION_PAGE:  69
!!@TRANSLATOR:	Emiliano Ricciardi and Amyrose McCue Gill
!!@VERSE:
!!	Voi s&ecirc;te bella, ma fugace e presta
!!	Come cervetta suole
!!	Che fugge per le selve oscure e sole
!!	E cerca fiume o rio,
!!	Talché vi seguo indarno e vi desio.
!!@VERSE:
!!	Voi s&ecirc;te bella, ma sì dura e fredda
!!	Come gelata fonte
!!	In orrid'alpe o bel cristallo in monte;
!!	Né vi riscalda il foco
!!	De' miei sospiri, e sono acceso e roco.
!!@VERSE:
!!	Voi s&ecirc;te bella, ma fallace e ria
!!	Come scoglio tra l'onde
!!	O lento visco fra le verdi fronde,
!!	O 'n mezzo l'erba il laccio,
!!	Soave mio ritegno e caro impaccio.
!!@VERSE:
!!	Voi s&ecirc;te bella, ma sdegnosa e schiva
!!	Come Dafne e Siringa
!!	O s'altra ninfa in bosco è più solinga,
!!	O come lei ch'Orfeo
!!	Fuggì sotterra o sotto al mare Alfeo.
!!@TVERSE:
!!	You are beautiful, but fleeting and fast
!!	Like a young doe
!!	That flees through lonely and dark forests
!!	And searches for a stream or a river,
!!	Such that I follow you in vain and I desire you.
!!@TVERSE:
!!	You are beautiful, but as hard and cold
!!	As a frozen spring
!!	In an alpine gorge or [as] a beautiful crystal in a mountain;
!!	Nor does the fire of my sighs
!!	Warm you, and I am on fire and hoarse.
!!@TVERSE:
!!	You are beautiful, but deceptive and mean
!!	Like a rock among the waves,
!!	Or thick birdlime among leafy branches,
!!	Or a snare in the midst of the grass,
!!	My pleasing restraint and dear hindrance.
!!@TVERSE:
!!	You are beautiful, but scornful and wary
!!	Like Daphne and Syrinx
!!	Or any other more solitary nymph in the wood,
!!	Or like she who escaped Orpheus
!!	Underground or Alpheus under the sea.
!!@@END:		VERSES
!!@OTHER_CRIT_ED:    None
!!@ATTRIBUTION_ABOUT:	Secure
!!	<br>
!!	Among other sources, this sonnet appears in the authoritative manuscript It. 385, Biblioteca Estense Universitaria, Modena, Italy (see Literary Sources).
!!@DATING:	Mid-1580s?
!!@DEDICATEE:	Isabellina
!!@DEDICATEE_INFO:	Margherita Gonzaga's dwarf
!!@COMMENTARY:
!!@@END:		VERSEDATA
!!@@BEGIN:	SETTING
!!@CATALOGNUM:	Trm1022a
!!@RIMETITLE:	Voi sete bella, ma fugage e presta
!!@SOLERTI:	1022
!!@COMPOSER:	Felis, Stefano
!!@PRINCEPSTITLE:	Il sesto libro de madrigali a cinque voci
!!@PRINCEPSLOC:	Venetia
!!@NORMLOC:	Venice
!!@NORMPUB:	Heirs of G. Scotto
!!@NORMPUBSHORT:	Scotto
!!@PRINCEPSPUB:	Eredi di Scotto
!!@PRINCEPSYEAR:	1591
!!@PRINCEPSRISM:	1591-18
!!@REPRINTS:	
!!@OVOICES:	5
!!@EXTANTVOICES:	5
!!@PARTBOOKS:	
!!@EXTPARTBOOKS:	
!!@OCLEFS:	C1,C1,C3,C4,F4
!!@OMENSURATION:	C
!!@OKEYSIG:	b-
!!@FINAL:	(G)(G)(G)G
!!@TIMPEDITOR:	Deutsch, Catherine
!!@NOTE:		
!!@@END:		SETTING
